flaticon/holiday/easter-egg-4.svg

<svg xmlns="http://www.w3.org/2000/svg" width="32" height="32" viewBox="0 0 24 24">
    <path d="M 20 13.199219 C 20 12.554688 19.488281 12.03125 18.851562 12.003906 C 19.078125 11.097656 19.199219 10.160156 19.199219 9.199219 C 19.199219 4.125 15.96875 0 12 0 C 8.03125 0 4.800781 4.125 4.800781 9.199219 C 4.800781 10.160156 4.921875 11.097656 5.148438 12.003906 C 4.511719 12.03125 4 12.554688 4 13.199219 C 4 16.523438 6.039062 19.378906 8.933594 20.585938 C 7.691406 21.027344 6.800781 22.210938 6.800781 23.601562 L 6.800781 24 L 16.800781 24 L 16.800781 23.601562 C 16.800781 22.285156 16 21.152344 14.863281 20.660156 C 17.863281 19.507812 20 16.601562 20 13.199219 Z M 6.230469 5.59375 C 6.949219 6.277344 7.875 6.722656 8.90625 6.859375 C 9.128906 6.890625 9.351562 6.90625 9.574219 6.90625 C 10.617188 6.902344 11.617188 6.574219 12.441406 5.945312 C 14.15625 4.628906 16.792969 4.957031 18.082031 6.644531 L 18.09375 6.636719 C 18.289062 7.445312 18.398438 8.304688 18.398438 9.199219 C 18.398438 9.273438 18.394531 9.34375 18.394531 9.417969 C 17.625 8.792969 16.632812 8.394531 15.546875 8.292969 C 14.121094 8.160156 12.6875 8.554688 11.621094 9.371094 C 9.789062 10.769531 7.078125 10.441406 5.621094 8.675781 C 5.671875 7.578125 5.886719 6.539062 6.230469 5.59375 Z M 5.621094 9.808594 C 6.570312 10.613281 7.785156 11.039062 9.003906 11.039062 C 10.097656 11.039062 11.195312 10.703125 12.105469 10.007812 C 13.015625 9.3125 14.242188 8.976562 15.476562 9.089844 C 16.628906 9.195312 17.648438 9.691406 18.324219 10.460938 C 18.261719 10.984375 18.167969 11.496094 18.03125 12 L 5.96875 12 C 5.773438 11.289062 5.660156 10.558594 5.621094 9.808594 Z M 12 0.800781 C 14.398438 0.800781 16.492188 2.542969 17.585938 5.113281 C 15.921875 4.027344 13.621094 4.035156 11.953125 5.308594 C 11.128906 5.941406 10.082031 6.210938 9.011719 6.066406 C 8.042969 5.9375 7.1875 5.488281 6.5625 4.792969 C 7.691406 2.402344 9.703125 0.800781 12 0.800781 Z M 13.601562 21.199219 C 14.789062 21.199219 15.777344 22.066406 15.96875 23.199219 L 7.632812 23.199219 C 7.824219 22.066406 8.8125 21.199219 10 21.199219 Z M 12 20.398438 C 8.03125 20.398438 4.800781 17.171875 4.800781 13.199219 C 4.800781 12.980469 4.980469 12.800781 5.199219 12.800781 L 18.800781 12.800781 C 19.019531 12.800781 19.199219 12.980469 19.199219 13.199219 C 19.199219 17.171875 15.96875 20.398438 12 20.398438 Z M 12 20.398438"/>
    <path d="M 12.351562 18.507812 C 10.167969 18.785156 8.160156 17.230469 7.882812 15.042969 C 7.851562 14.824219 7.652344 14.671875 7.433594 14.695312 C 7.214844 14.726562 7.058594 14.925781 7.085938 15.144531 C 7.394531 17.566406 9.464844 19.339844 11.847656 19.339844 C 12.046875 19.339844 12.25 19.328125 12.453125 19.300781 C 12.671875 19.273438 12.828125 19.074219 12.800781 18.855469 C 12.773438 18.636719 12.574219 18.484375 12.351562 18.507812 Z M 12.351562 18.507812"/>
</svg>

<svg xmlns="http://www.w3.org/2000/svg" width="32" height="32" viewBox="0 0 24 24">
    <path d="M20 13.2a1.2 1.2 0 0 0-1.148-1.196 11.54 11.54 0 0 0 .347-2.805C19.2 4.125 15.97 0 12 0S4.8 4.125 4.8 9.2c0 .96.122 1.898.348 2.804A1.2 1.2 0 0 0 4 13.199c0 3.324 2.04 6.18 4.934 7.387A3.203 3.203 0 0 0 6.8 23.602V24h10v-.398c0-1.317-.801-2.45-1.938-2.942 3-1.152 5.137-4.058 5.137-7.46zM6.23 5.593a4.768 4.768 0 0 0 2.676 1.265 4.728 4.728 0 0 0 3.535-.914c1.715-1.316 4.352-.988 5.641.7l.012-.008c.195.808.304 1.668.304 2.562 0 .074-.003.145-.003.219-.77-.625-1.762-1.023-2.848-1.125-1.426-.133-2.86.262-3.926 1.078-1.832 1.399-4.543 1.07-6-.695.05-1.098.266-2.137.61-3.082zm-.609 4.215a5.25 5.25 0 0 0 3.383 1.23 5.096 5.096 0 0 0 3.101-1.031c.91-.695 2.137-1.031 3.372-.918 1.152.105 2.171.601 2.847 1.37a10.7 10.7 0 0 1-.293 1.54H5.97a10.258 10.258 0 0 1-.348-2.191zM12 .8c2.398 0 4.492 1.742 5.586 4.312-1.664-1.086-3.965-1.078-5.633.196-.824.632-1.871.902-2.941.757a3.966 3.966 0 0 1-2.45-1.273C7.692 2.403 9.704.801 12 .801zm1.602 20.398c1.187 0 2.175.867 2.367 2H7.633c.191-1.133 1.18-2 2.367-2zM12 20.4a7.206 7.206 0 0 1-7.2-7.2.4.4 0 0 1 .4-.398h13.6a.4.4 0 0 1 .4.398c0 3.973-3.231 7.2-7.2 7.2zm0 0"/>
    <path d="M12.352 18.508a4.005 4.005 0 0 1-4.47-3.465.409.409 0 0 0-.448-.348.406.406 0 0 0-.348.45 4.808 4.808 0 0 0 5.367 4.156.4.4 0 0 0 .348-.446.404.404 0 0 0-.45-.347zm0 0"/>
</svg>
